X:1
T:Lead Me to the Rock
T:Asa Hull
T:Lead Me to the Rock
T:Public Domain
T:Public Domain
T:Public Domain
C:Asa Hull
Z:Public Domain
%%score ( 1 2 ) ( 3 4 )
L:1/8
M:4/4
K:C
V:1 treble 
V:2 treble 
V:3 bass 
V:4 bass 
V:1
 ([CE][DF]) | [EG]2 [EG]>[EG] [EG]2 [EG][EG] | [FA]2 [FA]>[FA] [EG]3 ([EG]/[EG]/) | %3
w: 1.~When *|mount- ains of doubt hem me|in on each side, And *|
w: 2.~When *|storms of deep trou- ble rage|fierce- ly a- round, When~fore- *|
w: 3.~The *|sun of pros- per- i- ty|bright- ly may shine, And~my *|
w: 4.~When *|near- ing the shore of the|riv- er of death, And~the *|
w: 5.~What- *|ev- er my lot, be it|wear- i- ly sad, Or *|
 [Ec]2 [GB]>[FA] [EG]2 [FA][EG] | [DF]2 [DG]>[DF] [CE]2"^a tempo." ([CE][DF]) | %5
w: waves of af- flict- ion roll|in like a tide; When *|
w: bod- ings of ill in my|spir- it a- bound; When~the *|
w: heart round its trea- sures too|close- ly may twine, When~my *|
w: mo- ments fly swift- ly with|each la- bored breath, When *|
w: ac- tive- ly bu- sy or|joy- ous- ly glad; In *|
 [EG]2 [EG]>[EG] [EG]2 [EG][EG] | [FA]2 [FA]>[FA] [Ac]3 [FA] | [EG][EG][EG][EG] [Ec]2 [Gc]>[Gd] | %8
w: vain- ly I seek some new|path- way to try, Oh,|lead me to the Rock that is|
w: hopes of a life- time are|blight- ed and die, Oh,|lead me to the Rock that is|
w: hopes are in dan- ger of|ris- ing too high, Oh,|lead me to the Rock that is|
w: los- ing my hold of each|dear earth- ly tie, Oh,|lead me to the Rock that is|
w: each joy and sor- row, my|God, be Thou nigh, Oh,|lead me to the Rock that is|
 [Ge]2 [Ge]>[Fd] [Ec]2 ||"^Refrain" ([CE][DF]) | [EG]>[^D^F] [EG]>[=FA] [EG]2 (cB) | %11
w: high- er than I.|||
w: high- er than I.|||
w: high- er than I.|Oh, *|lead me to the Rock, Oh, *|
w: high- er than I.|||
w: high- er than I.|||
 [FA]>[F^G] [FA]>[FB] [FA]2 ([DB][Ec]) | [Fd]>[Ec] [DB]>[FA] [EG]2 [DF]>[DF] | %13
w: ||
w: ||
w: me to the Rock, Oh, lead *|me to the Rock that is high-|
w: ||
w: ||
 ([CE][DF]) [EG]>[FA] [EG]2 ([CE][DF]) | [EG]>[^D^F] [EG]>[=FA] [EG]2 [Ge]2 | %15
w: ||
w: ||
w: er * than I, Oh, lead *|me to the Rock, Oh, lead|
w: ||
w: ||
 [Fd]>[Fc] [FB]>[FA] [EG]2 [Gc]>[Gd] | [Ge]2 [Ge]>[Fd] [Ec]2 |] %17
w: ||
w: ||
w: me to the Rock that is high-|er than I. *|
w: ||
w: ||
V:2
 x2 | x8 | x8 | x8 | x8 | x8 | x8 | x8 | x6 || x2 | x6 G2 | x8 | x8 | x8 | x8 | x8 | x6 |] %17
w: |||||||||||||||||
w: |||||||||||||||||
w: ||||||||||lead|||||||
V:3
 [C,G,]2 | [C,C]2 [C,C]>[C,C] [C,C]2 [C,C][C,C] | [F,C]2 [F,C]>[F,C] [C,C]3 ([C,C]/[C,C]/) | %3
 [C,G,]2 [C,G,]>[C,C] [C,C]2 [C,C][C,C] | [G,B,]2 [G,,G,B,]>[G,,G,] [C,G,]2 ([C,G,][C,G,]) | %5
 [C,C]2 [C,C]>[C,C] [C,C]2 [C,C][C,C] | [F,C]2 [F,C]>[F,C] [F,C]3 [F,C] | %7
 [C,C][C,C][C,C][C,C] [C,G,]2 [E,C]>[F,C] | [G,C]2 [G,,G,C]>[G,,G,B,] [C,C]2 || [C,G,]2 | %10
 [C,C]>[C,C] [C,C]>[C,C] [C,C]2 [E,C]2 | [F,C]>[F,C] [F,C]>[F,C] [F,C]2 G,2 | %12
 G,>G, G,>[G,C] [G,C]2 [G,,G,B,]>[G,,G,B,] | [C,C]2 [C,C]>[C,C] [C,C]2 [C,G,]2 | %14
 [C,C]>[C,C] [C,C]>[C,C] [C,C]2 [C,C]2 | [F,A,]>[F,A,] [F,A,]>[F,C] [G,C]2 [E,C]>[F,C] | %16
 [G,C]2 [G,,G,B,]>[G,,G,B,] [C,C]2 |] %17
V:4
 x2 | x8 | x8 | x8 | x8 | x8 | x8 | x8 | x6 || x2 | x8 | x6 G,2 | G,>G, G,3/2 x9/2 | x8 | x8 | x8 | %16
 x6 |] %17

